X: 0
T: The Bells of Bethlehem
Z: French Carol
Z: Copyright © 2004 by Douglas D. Anderson
Z: Released To The Public Domain
L: 1/4
M: 4/4
Q: 1/4=100
V: P1 name="Staff"
%%MIDI program 1 19
V: P2 name="Staff-1"
%%MIDI program 2 60
V: P3 name="Staff-2"
%%MIDI program 3 57
V: P4 name="Staff-3"
%%MIDI program 4 58
K: G
[V: P1]  B3/ B/ B d | e d/ c/ B d | e F G A | B (c/ B/) A A | B B G G/ G/ | B B G G | d c/ c/ B A/ G/ | F (G/ A/) A d | e F G A | B (c/ B/) A (d/ c/) | B F/ G/ | A A | G3|]
w: An- gels three with gifts for the King; Ring out, wild bells, in far Ju-_ dee! A branch of myrrh and a gold- en ring, And in- cense to burn for the wor- ship_ ping! Ring out, wild bells, Ring out, ring_ out, wild_ bells In a far ci- ty.
[V: P2]  G3/ G/ G (G/ F/) | E F/ F/ G B | c D E F | G (A/ G/) F F | F ^D E G/ E/ | ^D (E/ F/) E E | =F E/ E/ D ^C/ C/ | D (E/ F/) F G | F D E F | G (A/ G/) F D | D D/ D/ | C C | B,3|]
[V: P3]  D3/ D/ D B, | (C/ B,/) (A,/ D/) D D | D C B, A, | G, D D (D/ C/) | B, B, B, B,/ G,/ | F, B, B, B, | ^G, (A,/ A,/) =G, A,/ A,/ | A, (B,/ ^C/) D B, | C C B, A, | G, D D A, | G, A,/ G,/ (E,/ G,/) (G,/ F,/) | G,3|]
[V: P4]  G,3/ G,/ G, G, | C, (D,/ F,/) G, G, | D, D, D, D, | G, (F,/ G,/) D, D, | ^D, B,, E, (E,/ E,/) | B,, (^C,/ ^D,/) E, E, | B,, (B,,/ B,,/) D, E,/ A,,/ | D, (G,/ E,/) D, D, | D, A, G, D, | D, (D,/ E,/) D, F, | G, C,/ B,,/ A,, D, | G,,3|]

